X: 143
T:Steamboat
R:jig
C:Lesley Dolman, via EF
S:Nottingham Music Database
M:6/8
L:1/8
K:A
e|a2e c2A|Ace a3|agf edc|Bcd cBA|
a2e c2A|Ace a3|agf edc|edB A2:|
B|c2e efe|efe c2A|d2f fga|fga f2e|
c2e efe|d2f fga|agf edc|edB A2:|
